X: 19568
T: James Kelly's
R: slip jig
M: 9/8
K: Dmajor
F2A A2B A3|F2A A2A Bcd|F2A A2B A3|e2f e2d B2A:|
f2a a2f d3|e2f e2d B2A|f2a a2f d3|e/f/g ef2 dB2A|
f2a a2f d3|e2f e2d B2A|f2d e2c d3|B2=c B2A FED|

